assets/public/images/logo.svg

<svg width="44" height="46" viewBox="0 0 44 46" fill="none" xmlns="http://www.w3.org/2000/svg">
    <g id="Group">
        <g id="color">
            <g id="Group_2">
                <g id="Group_3">
                    <path id="Vector" fill-rule="evenodd" clip-rule="evenodd" d="M43.4298 21.1542C42.9678 18.6753 42.2584 16.2367 41.1756 14.2276C41.092 14.0498 40.9212 13.7737 40.8377 13.5956C40.5081 13.0159 39.4871 11.4033 39.1558 11.2725C38.8847 11.1638 38.5435 11.1294 38.1118 11.1977C37.5862 11.287 34.3565 11.9509 33.3358 12.3402C32.4622 12.6739 31.6124 12.9158 30.7152 13.2594C26.9332 14.7097 22.9037 16.4304 19.8982 18.7054C18.9143 19.4494 18.5697 19.6013 17.7666 20.5214C17.4971 20.828 16.8292 21.5948 16.5951 22.0626C16.2235 22.6204 15.954 23.7821 16.2887 24.597C16.831 25.9192 18.9143 26.4247 20.4005 26.8815C20.6549 26.9608 22.8853 27.3718 23.7303 27.5791C24.062 27.6599 29.9621 28.7453 30.3605 28.8567C31.9802 29.305 33.5298 29.8038 34.8386 30.562C35.8327 31.1366 36.7595 32.0719 37.1529 33.2483C37.2852 33.6395 37.2985 33.9156 37.315 34.3607C37.3351 34.8798 37.3086 35.2739 37.1829 35.623C37.0575 35.9683 36.9739 36.2816 36.7847 36.5886C35.9998 37.8657 34.9422 38.9579 33.8982 39.9708C32.372 41.4489 30.7686 42.7733 28.9883 44.0069C28.2586 44.5144 27.4004 44.9406 26.5736 45.3214C26.234 45.4764 25.4841 45.7142 25.4841 45.7142C25.4841 45.7142 26.888 45.537 27.4572 45.3553C27.8135 45.2441 28.128 45.1815 28.4729 45.0603C29.8552 44.5766 31.157 44.0474 32.3485 43.3986C35.9094 41.4588 38.4129 38.931 40.5416 35.5487C41.0738 34.7043 41.6224 33.7369 42.0006 32.7294C42.3219 31.8767 42.7104 30.9849 42.9146 30.0563C43.0382 29.502 43.2022 28.9173 43.3127 28.2769C43.413 27.7006 43.6372 25.6428 43.6372 24.849C43.6776 24.4125 43.5535 21.8129 43.4298 21.1542ZM16.5833 30.6363C16.0094 29.9687 15.2914 29.4127 14.5937 28.8701C14.4163 28.7319 13.6196 28.1504 13.4157 27.9802C12.5252 27.2353 11.4912 26.5714 10.4839 25.9175C9.49973 25.2804 7.76292 24.4824 7.32106 23.3971C6.59313 21.6149 8.15434 20.7429 9.06802 19.9104C9.637 19.3931 10.3031 19.0171 10.9389 18.5572C12.1991 17.6462 13.6532 17.0555 15.2731 16.4944C16.1565 16.1869 17.2243 15.8431 18.3051 15.7966C17.8835 15.3712 16.3138 14.4173 16.0394 14.2091C14.3191 12.9181 12.209 12.0074 9.98179 11.2725C7.82983 10.7839 6.60979 10.8994 6.25336 10.975C5.89693 11.0509 5.42334 11.1445 5.13382 11.3467C4.78084 11.591 4.59499 11.9821 4.35247 12.3402C3.94914 12.9385 3.56592 13.5763 3.20437 14.2242C3.06394 14.4762 2.50491 15.7856 2.31916 16.1968C1.695 17.5882 1.33689 19.1514 0.992191 20.8121C0.868326 21.4136 0.828218 21.6883 0.732922 22.5225C0.660892 23.1493 0.674294 24.3678 0.699328 25.1272C0.717754 25.6781 0.747812 26.0774 0.831568 26.7484C0.913462 27.419 1.04235 28.5735 1.28841 29.4042C2.12336 32.2389 2.67727 34.1247 4.64702 36.8092C5.11381 37.4377 5.34982 37.8019 5.723 38.2788C6.43576 39.1872 7.31101 39.932 8.15434 40.7123C8.43222 40.9702 9.20193 41.7958 9.64379 41.7065C11.2234 41.3879 13.0942 40.4005 14.0181 39.8072C14.945 39.2143 15.8069 38.6781 16.3474 38.2199C17.1975 37.4987 18.2366 36.8681 18.5715 35.6818C18.7302 35.1173 18.5979 34.337 18.4828 33.8717C18.1379 32.4713 17.3847 31.568 16.5833 30.6363Z" fill="#F7D4CB"/>
                </g>
                <g id="Group_4">
                    <path id="Vector_2" fill-rule="evenodd" clip-rule="evenodd" d="M22.1406 6.62891L5.35815 23.4722L8.0255 26.1443L12.0182 22.1955V34.3866L16.0696 34.3783V18.1738L20.079 14.1829L20.0823 34.3783H24.1118L24.1152 14.1527L28.1246 18.145V34.3783H32.1327V22.1661L36.1553 26.1576L38.925 23.4576L22.1406 6.62891Z" fill="#CF3942"/>
                </g>
                <g id="Group_5">
                    <path id="Vector_3" fill-rule="evenodd" clip-rule="evenodd" d="M25.0591 3.25393C25.0591 4.90295 23.7318 6.23828 22.0969 6.23828C20.4604 6.23828 19.1334 4.90295 19.1334 3.25393C19.1334 1.60547 20.4604 0.270141 22.0969 0.270141C23.7318 0.270141 25.0591 1.60547 25.0591 3.25393Z" fill="#CF3942"/>
                </g>
                <g id="Group_6">
                    <path id="Vector_4" fill-rule="evenodd" clip-rule="evenodd" d="M15.3165 11.3827C15.3165 13.0306 13.9911 14.3672 12.3546 14.3672C10.7181 14.3672 9.39257 13.0306 9.39257 11.3827C9.39257 9.73429 10.7181 8.39867 12.3546 8.39867C13.9911 8.39867 15.3165 9.73429 15.3165 11.3827Z" fill="#CF3942"/>
                </g>
                <g id="Group_7">
                    <path id="Vector_5" fill-rule="evenodd" clip-rule="evenodd" d="M34.8319 11.3827C34.8319 13.0306 33.5048 14.3672 31.8681 14.3672C30.2315 14.3672 28.9047 13.0306 28.9047 11.3827C28.9047 9.73429 30.2315 8.39877 31.8681 8.39877C33.5048 8.39877 34.8319 9.73429 34.8319 11.3827Z" fill="#D62638"/>
                </g>
            </g>
        </g>
    </g>
</svg>

<svg xmlns="http://www.w3.org/2000/svg" viewBox="0 0 46 46">
    <path fill="#f7d4cb"
          d="M43.43 21.154c-.462-2.479-1.172-4.917-2.254-6.926-.084-.178-.255-.454-.338-.632-.33-.58-1.35-2.193-1.682-2.324-.271-.108-.612-.143-1.044-.074-.526.089-3.755.753-4.776 1.142-.874.334-1.724.576-2.62.92-3.783 1.45-7.812 3.17-10.818 5.445-.984.744-1.328.896-2.131 1.816-.27.307-.938 1.074-1.172 1.542-.371.557-.641 1.72-.306 2.534.542 1.322 2.625 1.828 4.112 2.284.254.08 2.484.49 3.33.698.331.08 6.231 1.166 6.63 1.278 1.62.448 3.169.947 4.478 1.705.994.575 1.92 1.51 2.314 2.686.132.392.146.668.162 1.113.02.519-.006.913-.132 1.262-.125.345-.21.659-.398.966-.785 1.277-1.843 2.369-2.887 3.382a38.513 38.513 0 0 1-4.91 4.036c-.73.507-1.588.934-2.414 1.314-.34.155-1.09.393-1.09.393s1.404-.177 1.973-.359c.357-.11.671-.173 1.016-.295 1.382-.483 2.684-1.013 3.876-1.661 3.56-1.94 6.064-4.468 8.193-7.85.532-.845 1.08-1.812 1.459-2.82.32-.852.71-1.744.914-2.673.123-.554.287-1.139.398-1.78.1-.575.324-2.633.324-3.427.04-.436-.083-3.036-.207-3.695zm-26.847 9.482c-.574-.667-1.292-1.223-1.99-1.766-.177-.138-.973-.72-1.177-.89-.89-.745-1.925-1.409-2.932-2.063-.984-.637-2.721-1.435-3.163-2.52-.728-1.782.833-2.654 1.747-3.487.569-.517 1.235-.893 1.87-1.353 1.261-.91 2.715-1.502 4.335-2.063.884-.307 1.951-.65 3.032-.697-.421-.426-1.991-1.38-2.266-1.588-1.72-1.29-3.83-2.202-6.057-2.937-2.152-.488-3.372-.373-3.729-.297-.356.076-.83.17-1.12.372-.352.244-.538.635-.78.993a26.398 26.398 0 0 0-1.149 1.884c-.14.252-.7 1.562-.885 1.973-.624 1.391-.982 2.954-1.327 4.615-.124.602-.164.876-.26 1.71-.071.627-.058 1.846-.033 2.605.019.551.049.95.133 1.621.081.671.21 1.826.456 2.656.835 2.835 1.39 4.72 3.359 7.405.467.629.703.993 1.076 1.47.713.908 1.588 1.653 2.431 2.433.278.258 1.048 1.084 1.49.995 1.58-.32 3.45-1.306 4.374-1.9.927-.593 1.789-1.129 2.33-1.587.85-.721 1.889-1.352 2.224-2.538.158-.565.026-1.345-.09-1.81-.344-1.4-1.097-2.304-1.899-3.236z"/>
    <path fill="#cf3942"
          d="M22.14 6.629 5.359 23.472l2.667 2.672 3.993-3.948v12.19l4.052-.008V18.174l4.009-3.991.003 20.195h4.03l.003-20.225 4.01 3.992v16.233h4.008V22.166l4.022 3.992 2.77-2.7zm2.92-3.375a2.974 2.974 0 0 1-2.963 2.984 2.974 2.974 0 0 1-2.964-2.984A2.973 2.973 0 0 1 22.097.27c1.635 0 2.962 1.335 2.962 2.984zm-9.744 8.129c0 1.648-1.325 2.984-2.961 2.984s-2.962-1.336-2.962-2.984c0-1.649 1.325-2.984 2.962-2.984s2.961 1.335 2.961 2.984zM34.832 11.383c0 1.648-1.327 2.984-2.964 2.984s-2.963-1.336-2.963-2.984a2.973 2.973 0 0 1 2.963-2.984 2.974 2.974 0 0 1 2.964 2.984z"/>
</svg>
